src/lib/packages/icons/src/assets/line/shield-star.svg

<svg width="24" height="24" viewBox="0 0 24 24" fill="none" xmlns="http://www.w3.org/2000/svg">
<path d="M12 22.7501C11.92 22.7501 11.8399 22.7371 11.7629 22.7111C10.1739 22.1811 2.25 19.1221 2.25 10.8881V5.00012C2.25 4.64312 2.50203 4.33401 2.85303 4.26501C7.73303 3.28901 9.46305 2.43111 11.6541 1.34411C11.8651 1.23911 12.146 1.22519 12.356 1.33019C14.515 2.41919 16.2209 3.27901 21.1479 4.26501C21.4989 4.33501 21.751 4.64312 21.751 5.00012V10.889C21.751 19.123 13.827 22.182 12.238 22.712C12.16 22.737 12.08 22.7501 12 22.7501ZM3.75 5.61218V10.8881C3.75 17.7531 10.168 20.5482 12 21.2052C13.832 20.5482 20.25 17.7521 20.25 10.8881V5.61218C15.827 4.68618 13.9679 3.81901 12.0149 2.83801C9.93789 3.86501 8.135 4.69618 3.75 5.61218ZM14.292 16.2621C14.093 16.2621 13.894 16.2141 13.708 16.1171L12 15.2262L10.292 16.1171C9.86399 16.3411 9.35502 16.3022 8.96802 16.0172C8.58002 15.7342 8.38992 15.2651 8.47192 14.7921L8.7959 12.9161L7.37207 11.5392C7.03507 11.2132 6.91506 10.7342 7.06006 10.2882C7.20506 9.8412 7.58307 9.52219 8.04907 9.45519L10.0229 9.17004L10.875 7.45715C11.088 7.02815 11.52 6.7611 12.001 6.7611C12.481 6.7611 12.913 7.02815 13.127 7.45715L13.979 9.17004L15.9541 9.45519C16.4191 9.52119 16.7979 9.8412 16.9419 10.2882C17.0869 10.7342 16.9659 11.2132 16.6299 11.5392L15.2061 12.9161L15.531 14.7941C15.612 15.2681 15.421 15.7362 15.033 16.0192C14.811 16.1802 14.553 16.2621 14.292 16.2621ZM12 13.691C12.194 13.691 12.3889 13.7372 12.5659 13.8302L13.9651 14.5602L13.699 13.025C13.631 12.626 13.7629 12.2201 14.0549 11.9391L15.1721 10.859L13.6179 10.6351C13.2209 10.5771 12.877 10.3291 12.698 9.97106L11.998 8.5631L11.2991 9.96911C11.1191 10.3281 10.7759 10.5771 10.3789 10.6351L8.82397 10.859L9.94312 11.941C10.2331 12.22 10.3661 12.626 10.2971 13.024L10.031 14.5602L11.4299 13.8302C11.6109 13.7382 11.806 13.691 12 13.691ZM8.90308 13.0201C8.90308 13.0201 8.90305 13.0211 8.90405 13.0211L8.90308 13.0201ZM15.0991 13.0182C15.0981 13.0192 15.0991 13.0192 15.0991 13.0182V13.0182ZM15.738 10.9401H15.748H15.738ZM11.782 8.12512L11.783 8.12609L11.782 8.12512Z" fill="currentColor"/>
</svg>

<svg xmlns="http://www.w3.org/2000/svg" width="24" height="24" fill="none"><path fill="currentColor" d="M12 22.75a.741.741 0 0 1-.237-.039c-1.59-.53-9.513-3.589-9.513-11.823V5c0-.357.252-.666.603-.735 4.88-.976 6.61-1.834 8.801-2.92a.822.822 0 0 1 .702-.015c2.159 1.09 3.865 1.949 8.792 2.935A.75.75 0 0 1 21.75 5v5.889c0 8.234-7.924 11.293-9.513 11.823a.78.78 0 0 1-.238.038ZM3.75 5.612v5.276c0 6.865 6.418 9.66 8.25 10.317 1.832-.657 8.25-3.453 8.25-10.317V5.612c-4.423-.926-6.282-1.793-8.235-2.774-2.077 1.027-3.88 1.858-8.265 2.774Zm10.542 10.65c-.199 0-.398-.048-.584-.145L12 15.227l-1.708.89a1.247 1.247 0 0 1-1.324-.1 1.244 1.244 0 0 1-.496-1.225l.324-1.876-1.424-1.377a1.209 1.209 0 0 1-.312-1.25c.145-.448.523-.767.99-.834l1.973-.285.852-1.713a1.25 1.25 0 0 1 1.126-.696c.48 0 .912.267 1.126.696l.852 1.713 1.975.285c.465.066.844.386.988.833a1.21 1.21 0 0 1-.312 1.251l-1.424 1.377.325 1.878a1.258 1.258 0 0 1-1.239 1.468ZM12 13.691c.194 0 .389.046.566.14l1.4.73-.267-1.536a1.22 1.22 0 0 1 .356-1.086l1.117-1.08-1.554-.224a1.226 1.226 0 0 1-.92-.664l-.7-1.408-.699 1.406c-.18.36-.523.608-.92.666l-1.555.224 1.12 1.082c.29.279.422.685.353 1.083l-.266 1.536 1.399-.73c.18-.092.376-.139.57-.139Zm-3.097-.67h.001Zm6.196-.003c0 .001 0 .001 0 0Zm.639-2.078h.01-.01Zm-3.956-2.815.001.001h-.001Z"/></svg>
